icons/Map/compass-4-line.svg

<svg viewBox="0 0 24 24" xmlns="http://www.w3.org/2000/svg"><path d="M12 22C6.47715 22 2 17.5228 2 12C2 6.47715 6.47715 2 12 2C17.5228 2 22 6.47715 22 12C22 17.5228 17.5228 22 12 22ZM12 20C16.4183 20 20 16.4183 20 12C20 7.58172 16.4183 4 12 4C7.58172 4 4 7.58172 4 12C4 16.4183 7.58172 20 12 20ZM15.4462 9.96803L9.96803 15.4462C9.38559 15.102 8.89798 14.6144 8.55382 14.032L14.032 8.55382C14.6144 8.89798 15.102 9.38559 15.4462 9.96803Z"/></svg>

<svg xmlns="http://www.w3.org/2000/svg" viewBox="0 0 24 24">
    <g>
        <path fill="none" d="M0 0h24v24H0z"/>
        <path d="M12 22C6.477 22 2 17.523 2 12S6.477 2 12 2s10 4.477 10 10-4.477 10-10 10zm0-2a8 8 0 1 0 0-16 8 8 0 0 0 0 16zm3.446-10.032l-5.478 5.478a4.02 4.02 0 0 1-1.414-1.414l5.478-5.478a4.02 4.02 0 0 1 1.414 1.414z"/>
    </g>
</svg>
